themes/mukurtu_v4/images/twitter.svg

<svg xmlns="http://www.w3.org/2000/svg" viewBox="0 0 24 24" fill="#cccccc"><path d="M18.2048 2.25H21.5128L14.2858 10.51L22.7878 21.75H16.1308L10.9168 14.933L4.95084 21.75H1.64084L9.37084 12.915L1.21484 2.25H8.04084L12.7538 8.481L18.2048 2.25ZM17.0438 19.77H18.8768L7.04484 4.126H5.07784L17.0438 19.77Z"></path></svg>

<svg xmlns="http://www.w3.org/2000/svg" fill="#ccc" viewBox="0 0 24 24" aria-hidden="true"><path d="M18.205 2.25h3.308l-7.227 8.26 8.502 11.24H16.13l-5.214-6.817L4.95 21.75H1.64l7.73-8.835L1.215 2.25H8.04l4.713 6.231zm-1.161 17.52h1.833L7.045 4.126H5.078z"/></svg>
